icons/line/receipt-refund.svg

<svg width="24" height="24" viewBox="0 0 24 24" fill="none" xmlns="http://www.w3.org/2000/svg">
<path fill-rule="evenodd" clip-rule="evenodd" d="M7 2C5.34315 2 4 3.34315 4 5V21C4 21.3565 4.18976 21.686 4.49807 21.8649C4.80639 22.0438 5.18664 22.0451 5.49614 21.8682L8.5 20.1518L10.5116 21.3012C11.4339 21.8283 12.5661 21.8283 13.4884 21.3012L15.5 20.1518L18.5039 21.8682C18.8134 22.0451 19.1936 22.0438 19.5019 21.8649C19.8102 21.686 20 21.3565 20 21V5C20 3.34315 18.6569 2 17 2H7ZM6 5C6 4.44772 6.44772 4 7 4H17C17.5523 4 18 4.44772 18 5V19.2768L15.9961 18.1318C15.6887 17.9561 15.3113 17.9561 15.0039 18.1318L12.4961 19.5647C12.1887 19.7404 11.8113 19.7404 11.5039 19.5647L8.99614 18.1318C8.68871 17.9561 8.31129 17.9561 8.00386 18.1318L6 19.2768V5ZM10.2929 6.29289C10.6834 5.90237 11.3166 5.90237 11.7071 6.29289C12.0976 6.68342 12.0976 7.31658 11.7071 7.70711L10.4142 9H12C14.2091 9 16 10.7909 16 13V14C16 14.5523 15.5523 15 15 15C14.4477 15 14 14.5523 14 14V13C14 11.8954 13.1046 11 12 11H10.4142L11.7071 12.2929C12.0976 12.6834 12.0976 13.3166 11.7071 13.7071C11.3166 14.0976 10.6834 14.0976 10.2929 13.7071L7.29289 10.7071C6.90237 10.3166 6.90237 9.68342 7.29289 9.29289L10.2929 6.29289Z" fill="currentColor"/>
</svg>

<svg width="24" height="24" fill="none" xmlns="http://www.w3.org/2000/svg"><path fill-rule="evenodd" clip-rule="evenodd" d="M7 2a3 3 0 00-3 3v16a1 1 0 001.496.868L8.5 20.152l2.012 1.15a3 3 0 002.976 0l2.012-1.15 3.004 1.716A1 1 0 0020 21V5a3 3 0 00-3-3H7zM6 5a1 1 0 011-1h10a1 1 0 011 1v14.277l-2.004-1.145a1 1 0 00-.992 0l-2.508 1.433a1 1 0 01-.992 0l-2.508-1.433a1 1 0 00-.992 0L6 19.277V5zm4.293 1.293a1 1 0 111.414 1.414L10.414 9H12a4 4 0 014 4v1a1 1 0 11-2 0v-1a2 2 0 00-2-2h-1.586l1.293 1.293a1 1 0 01-1.414 1.414l-3-3a1 1 0 010-1.414l3-3z" fill="currentColor"/></svg>
